assets/picture.svg

<svg height="360" viewBox="0 0 640 360" width="640" xmlns="http://www.w3.org/2000/svg"><g fill="none" fill-rule="evenodd"><path d="m0 0h640v360h-640z" fill="#31706c"/><g fill="#fff"><g fill-rule="nonzero" transform="translate(121 152)"><path d="m13 12.7953488-13-8.7953488v31l13-8.7232558z"/><path d="m43 56h31.6448276c5.6482758 0 10.3551724-5.1940299 10.3551724-11.4701493v-17.5298507z"/><path d="m85 4-76 52.9270977h.07258835c.36294174.0729023.79847182.0729023 1.23400195.0729023h26.5673352l48.0534862-33.4621733v-19.5378267z"/><path d="m86 0h-86l16.4228474 11.4250614v13.1941032l9.4578005-6.5601965 17.082694 11.9410319zm-65.7647059 9.87714988-9.1645354-6.41277642 64.4450128-1.32678132zm22.7280478 15.84766582-15.3964195-10.7616707 48.9019608-11.35135139z"/><path d="m25.8563536 22-25.8563536 17.95671v.073593 6.4025974c.14732965 3.3852814 1.69429098 6.3290044 3.8305709 8.4632035.36832413.3679654.81031308.7359307 1.32596685 1.1038961l34.84346225-24.1385281z"/></g><g transform="translate(226 161)"><path d="m0 19.5012053c0-11.58803081 8.80096867-19.5012053 20.1574088-19.5012053 8.3469048 0 13.1739065 4.52215835 15.8425912 9.21245133l-6.9284093 3.39222137c-1.5892235-3.05173371-4.9959134-5.48215277-8.9141819-5.48215277-6.8702891 0-11.86741334 5.25616537-11.86741334 12.37868537 0 7.120712 4.99712424 12.37748 11.86741334 12.37748 3.9182685 0 7.3249584-2.3743742 8.9141819-5.4827554l6.9284093 3.3343686c-2.7255941 4.6914983-7.4956864 9.2697015-15.8425912 9.2697015-11.35644013 0-20.1574088-7.9125719-20.1574088-19.4987947"/><path d="m56.9907972 38.32028v-3.4498654c-1.8205569 2.092838-5.021536 4.1295854-9.3811048 4.1295854-5.8500247 0-8.6096924-3.2809908-8.6096924-8.5987291v-19.4012709h7.0086144v16.5732256c0 3.7906301 1.9317674 5.0348735 4.9120908 5.0348735 2.7043566 0 4.8567797-1.5271083 6.070092-3.1115132v-18.4965859h7.0092028v27.32028z"/><path d="m69 35.0552658 3.1056698-4.9149562c2.1013548 1.2659825 6.0421476 2.4471736 9.4308079 2.4471736 3.1056698 0 4.5742097-1.2147544 4.5742097-2.8705417 0-4.4185734-16.2075263-.8290714-16.2075263-11.3225943 0-4.4739232 4.009433-8.3943472 11.1811339-8.3943472 4.6308079 0 8.2548922.8591016 11.2250878 2.4554172l-3.4579026 4.5004206c-1.9598595-1.0210296-4.3785249-1.5986709-7.709985-1.5986709-2.5986954 0-4.2924234 1.1594044-4.2924234 2.6509085 0 3.9769515 16.1509282.6624327 16.1509282 11.4315276 0 4.8601951-4.2352233 8.560397-11.8019067 8.560397-4.744004 0-8.9292524-.8702894-12.1980933-2.9447342"/><path d="m99.4531916 31.6318295v-13.192477h-4.4531916v-2.0527319l9.311759-12.3866206h2.277119v8.2436615h5.463065v6.195691h-5.463065v11.2944887c0 1.6748006.892184 2.9585764 2.45306 2.9585764 1.059208 0 2.061949-.3910249 2.452465-.7814546l1.505597 5.3582907c-1.059208.9486965-2.954727 1.7307463-5.909454 1.7307463-4.961398 0-7.6373544-2.5669563-7.6373544-7.3681705"/><path d="m137.508419 23.972325c0-4.1412348-2.554072-7.7319145-7.037161-7.7319145-4.483088 0-6.980282 3.5906797-6.980282 7.7319145 0 4.1977625 2.497194 7.7872645 6.980282 7.7872645 4.483089 0 7.037161-3.589502 7.037161-7.7872645zm-21.508419 0c0-7.5664535 5.448202-13.972325 14.471258-13.972325 9.08054 0 14.528742 6.4058715 14.528742 13.972325 0 7.6212147-5.448202 14.027675-14.528742 14.027675-9.023056 0-14.471258-6.4064603-14.471258-14.027675z"/><path d="m181.78133 38v-17.2517394c0-2.5457835-1.127447-4.3563597-4.060013-4.3563597-2.53811 0-4.62524 1.697189-5.640243 3.1676037v18.4404954h-7.21867v-17.2517394c0-2.5457835-1.127448-4.3563597-4.060615-4.3563597-2.480985 0-4.568116 1.697189-5.639642 3.2242973v18.3838018h-7.162147v-27.32028h7.162147v3.5620463c1.128049-1.6392892 4.737083-4.2417663 8.910743-4.2417663 4.004092 0 6.5416 1.8672698 7.557205 4.9781799 1.579027-2.48909 5.188663-4.9781799 9.361721-4.9781799 5.019697 0 8.008184 2.6585676 8.008184 8.2591707v19.7408293z"/><path d="m207.227847 15.5779778c-4.495655 0-6.431293 3.2579912-6.772305 5.9088997h13.54461c-.170506-2.5390309-1.992069-5.9088997-6.772305-5.9088997zm-14.227847 8.3943472c0-7.7319145 5.86213-13.972325 14.227847-13.972325 8.195818 0 13.772153 5.9642497 13.772153 14.6906965v1.5456763h-20.430989c.455087 3.3686911 3.243861 6.1862382 7.911236 6.1862382 2.332474 0 5.576942-.9945323 7.341467-2.6514973l3.186218 4.5286844c-2.731131 2.4295088-7.056886 3.7002019-11.324998 3.7002019-8.365717 0-14.682934-5.4678668-14.682934-14.027675z"/><path d="m224 38v-27.32028h7.230839v3.7333333c1.935954-2.4336026 5.353165-4.4130533 8.769161-4.4130533v7.0137211c-.513583-.1115779-1.19654-.1682715-1.993019-.1682715-2.391258 0-5.579602 1.3570275-6.776142 3.1109101v18.0436403z"/><path d="m239 34.5005923c0-2.4445833 2.054824-4.5005923 4.499408-4.5005923 2.445768 0 4.500592 2.056009 4.500592 4.5005923 0 2.4433987-2.054824 4.4994077-4.500592 4.4994077-2.444584 0-4.499408-2.056009-4.499408-4.4994077"/><path d="m254.768939 38h7.520834v-26.753975h-7.520834zm-.768939-33.84497739c0-2.32645829 2.072601-4.15502261 4.500631-4.15502261 2.486743 0 4.499369 1.82856432 4.499369 4.15502261 0 2.32586767-2.012626 4.2093598-4.499369 4.2093598-2.42803 0-4.500631-1.88349213-4.500631-4.2093598z"/><path d="m286.509473 23.972325c0-4.1412348-2.55352-7.7319145-7.037913-7.7319145-4.483787 0-6.981033 3.5906797-6.981033 7.7319145 0 4.1977625 2.497246 7.7872645 6.981033 7.7872645 4.484393 0 7.037913-3.589502 7.037913-7.7872645zm-21.509473 0c0-7.5664535 5.448316-13.972325 14.47156-13.972325 9.080124 0 14.52844 6.4058715 14.52844 13.972325 0 7.6212147-5.448316 14.027675-14.52844 14.027675-9.023244 0-14.47156-6.4064603-14.47156-14.027675z"/></g></g></g></svg>

<?xml version="1.0" encoding="UTF-8"?>
<svg width="640px" height="360px" viewBox="0 0 640 360" version="1.1" xmlns="http://www.w3.org/2000/svg" xmlns:xlink="http://www.w3.org/1999/xlink">
    <!-- Generator: Sketch 50.2 (55047) - http://www.bohemiancoding.com/sketch -->
    <title>customerio/picture</title>
    <desc>Created with Sketch.</desc>
    <defs></defs>
    <g id="customerio/picture" stroke="none" stroke-width="1" fill="none" fill-rule="evenodd">
        <rect id="Rectangle" fill="#31706C" x="0" y="0" width="640" height="360"></rect>
        <g id="Group" transform="translate(121.000000, 152.000000)" fill="#FFFFFF" fill-rule="nonzero">
            <polygon id="Shape" points="13 12.7953488 0 4 0 35 13 26.2767442"></polygon>
            <path d="M43,56 L74.6448276,56 C80.2931034,56 85,50.8059701 85,44.5298507 L85,27 L43,56 Z" id="Shape"></path>
            <path d="M85,4 L9,56.9270977 C9,56.9270977 9.07258835,56.9270977 9.07258835,56.9270977 C9.43553009,57 9.87106017,57 10.3065903,57 L36.8739255,57 L84.9274117,23.5378267 L84.9274117,4 L85,4 Z" id="Shape"></path>
            <path d="M86,0 L0,0 L16.4228474,11.4250614 L16.4228474,24.6191646 L25.8806479,18.0589681 L42.9633419,30 L86,0 Z M20.2352941,9.87714988 L11.0707587,3.46437346 L75.5157715,2.13759214 L20.2352941,9.87714988 Z M42.9633419,25.7248157 L27.5669224,14.963145 L76.4688832,3.61179361 L42.9633419,25.7248157 Z" id="Shape"></path>
            <path d="M25.8563536,22 L0,39.95671 L0,40.030303 L0,46.4329004 C0.14732965,49.8181818 1.69429098,52.7619048 3.8305709,54.8961039 C4.19889503,55.2640693 4.64088398,55.6320346 5.15653775,56 L40,31.8614719 L25.8563536,22 Z" id="Shape"></path>
        </g>
        <g id="Customer.io-logo" transform="translate(226.000000, 161.000000)" fill="#FFFFFF">
            <path d="M0,19.5012053 C0,7.91317449 8.80096867,0 20.1574088,0 C28.5043136,0 33.3313153,4.52215835 36,9.21245133 L29.0715907,12.6046727 C27.4823672,9.55293899 24.0756773,7.12251993 20.1574088,7.12251993 C13.2871197,7.12251993 8.28999546,12.3786853 8.28999546,19.5012053 C8.28999546,26.6219173 13.2871197,31.8786853 20.1574088,31.8786853 C24.0756773,31.8786853 27.4823672,29.5043111 29.0715907,26.3959299 L36,29.7302985 C33.2744059,34.4217968 28.5043136,39 20.1574088,39 C8.80096867,39 0,31.0874281 0,19.5012053" id="Fill-1"></path>
            <path d="M56.9907972,38.32028 L56.9907972,34.8704146 C55.1702403,36.9632526 51.9692612,39 47.6096924,39 C41.7596677,39 39,35.7190092 39,30.4012709 L39,11 L46.0086144,11 L46.0086144,27.5732256 C46.0086144,31.3638557 47.9403818,32.6080991 50.9207052,32.6080991 C53.6250618,32.6080991 55.7774849,31.0809908 56.9907972,29.4965859 L56.9907972,11 L64,11 L64,38.32028 L56.9907972,38.32028" id="Fill-2"></path>
            <path d="M69,35.0552658 L72.1056698,30.1403096 C74.2070246,31.4062921 78.1478174,32.5874832 81.5364777,32.5874832 C84.6421475,32.5874832 86.1106874,31.3727288 86.1106874,29.7169415 C86.1106874,25.2983681 69.9031611,28.8878701 69.9031611,18.3943472 C69.9031611,13.920424 73.9125941,10 81.084295,10 C85.7151029,10 89.3391872,10.8591016 92.3093828,12.4554172 L88.8514802,16.9558378 C86.8916207,15.9348082 84.4729553,15.3571669 81.1414952,15.3571669 C78.5427998,15.3571669 76.8490718,16.5165713 76.8490718,18.0080754 C76.8490718,21.9850269 93,18.6705081 93,29.439603 C93,34.2997981 88.7647767,38 81.1980933,38 C76.4540893,38 72.2688409,37.1297106 69,35.0552658" id="Fill-3"></path>
            <path d="M99.4531916,31.6318295 L99.4531916,18.4393525 L95,18.4393525 L95,16.3866206 L104.311759,4 L106.588878,4 L106.588878,12.2436615 L112.051943,12.2436615 L112.051943,18.4393525 L106.588878,18.4393525 L106.588878,29.7338412 C106.588878,31.4086418 107.481062,32.6924176 109.041938,32.6924176 C110.101146,32.6924176 111.103887,32.3013927 111.494403,31.910963 L113,37.2692537 C111.940792,38.2179502 110.045273,39 107.090546,39 C102.129148,39 99.4531916,36.4330437 99.4531916,31.6318295" id="Fill-4"></path>
            <path d="M137.508419,23.972325 C137.508419,19.8310902 134.954347,16.2404105 130.471258,16.2404105 C125.98817,16.2404105 123.490976,19.8310902 123.490976,23.972325 C123.490976,28.1700875 125.98817,31.7595895 130.471258,31.7595895 C134.954347,31.7595895 137.508419,28.1700875 137.508419,23.972325 Z M116,23.972325 C116,16.4058715 121.448202,10 130.471258,10 C139.551798,10 145,16.4058715 145,23.972325 C145,31.5935397 139.551798,38 130.471258,38 C121.448202,38 116,31.5935397 116,23.972325 Z" id="Fill-5"></path>
            <path d="M181.78133,38 L181.78133,20.7482606 C181.78133,18.2024771 180.653883,16.3919009 177.721317,16.3919009 C175.183207,16.3919009 173.096077,18.0890899 172.081074,19.5595046 L172.081074,38 L164.862404,38 L164.862404,20.7482606 C164.862404,18.2024771 163.734956,16.3919009 160.801789,16.3919009 C158.320804,16.3919009 156.233673,18.0890899 155.162147,19.6161982 L155.162147,38 L148,38 L148,10.67972 L155.162147,10.67972 L155.162147,14.2417663 C156.290196,12.6024771 159.89923,10 164.07289,10 C168.076982,10 170.61449,11.8672698 171.630095,14.9781799 C173.209122,12.4890899 176.818758,10 180.991816,10 C186.011513,10 189,12.6585676 189,18.2591707 L189,38 L181.78133,38" id="Fill-6"></path>
            <path d="M207.227847,15.5779778 C202.732192,15.5779778 200.796554,18.835969 200.455542,21.4868775 L214.000152,21.4868775 C213.829646,18.9478466 212.008083,15.5779778 207.227847,15.5779778 Z M193,23.972325 C193,16.2404105 198.86213,10 207.227847,10 C215.423665,10 221,15.9642497 221,24.6906965 L221,26.2363728 L200.569011,26.2363728 C201.024098,29.6050639 203.812872,32.422611 208.480247,32.422611 C210.812721,32.422611 214.057189,31.4280787 215.821714,29.7711137 L219.007932,34.2997981 C216.276801,36.7293069 211.951046,38 207.682934,38 C199.317217,38 193,32.5321332 193,23.972325 Z" id="Fill-7"></path>
            <path d="M224,38 L224,10.67972 L231.230839,10.67972 L231.230839,14.4130533 C233.166793,11.9794507 236.584004,10 240,10 L240,17.0137211 C239.486417,16.9021432 238.80346,16.8454496 238.006981,16.8454496 C235.615723,16.8454496 232.427379,18.2024771 231.230839,19.9563597 L231.230839,38 L224,38" id="Fill-8"></path>
            <path d="M239,34.5005923 C239,32.056009 241.054824,30 243.499408,30 C245.945176,30 248,32.056009 248,34.5005923 C248,36.943991 245.945176,39 243.499408,39 C241.054824,39 239,36.943991 239,34.5005923" id="Fill-9"></path>
            <path d="M254.768939,38 L262.289773,38 L262.289773,11.246025 L254.768939,11.246025 L254.768939,38 Z M254,4.15502261 C254,1.82856432 256.072601,0 258.500631,0 C260.987374,0 263,1.82856432 263,4.15502261 C263,6.48089028 260.987374,8.36438241 258.500631,8.36438241 C256.072601,8.36438241 254,6.48089028 254,4.15502261 Z" id="Fill-10"></path>
            <path d="M286.509473,23.972325 C286.509473,19.8310902 283.955953,16.2404105 279.47156,16.2404105 C274.987773,16.2404105 272.490527,19.8310902 272.490527,23.972325 C272.490527,28.1700875 274.987773,31.7595895 279.47156,31.7595895 C283.955953,31.7595895 286.509473,28.1700875 286.509473,23.972325 Z M265,23.972325 C265,16.4058715 270.448316,10 279.47156,10 C288.551684,10 294,16.4058715 294,23.972325 C294,31.5935397 288.551684,38 279.47156,38 C270.448316,38 265,31.5935397 265,23.972325 Z" id="Fill-11"></path>
        </g>
    </g>
</svg>
